X: 1
T: Rainbow
M: 3/4
L: 1/8
R: waltz
K: Fmaj
fg|a2 ba gf|g2 ag fe|dF AD FA,|CE Gc eg|
a2 ba gf|g2 ag fe|dF AD FA,|1 CD ED:|2 CD ED de||
K:D
f2 gf ed|e2 fe dc|BD GB, DB,|A,C EA de|
f2 gf ed|ea fe dc|Bd gf dA|1 ^GB e2 de:|2 ^GB e2 =f=g||
